X:7023
T:Goddesses
R:Reel
C:Trad. Playford 1651/1721
O:England
Z:Paul Hardy's Session Tunebook 2022 (see www.paulhardy.net). Creative Commons cc by-nc-sa licenced.
N:First two lines are original Playford 1st edition of 1651. Last two are from 17th edition in 1721.
M:4/4
L:1/8
Q:1/4=160
K:Am
"Am"A2A2 c2BA|"G"B2B2 d2cB|"Am"A2A2 c2BA|"Em"e2e2 e4:|
|:"C"g2e2 c3e|"G"d2B2 G3B|"Am"c2A2 "G"G3B|"Am"A2A2 A4:|
|:"Am"A2 AB cBcA|"G"B2 Bc dcdB|"Am"AGAB cBcd|"Em"e2 e2 e4:|
|:"C"gfed c2 fe|"G" dcBA G2 FE|"Am" ABcA "G"BcdB|"Am" c2 A2 A4:|

